!!!COM: Robert Schumann
!!!CNT: Deutsch
!!!TXO: Deutsch
!!!OTL: Nichts Scho2neres
!!!LYR: Reinick
!!!OPR: Sechs Gedichte
!!!OPS: Op.36
!!!ONM: No. 3
!!!ENC: Ben Fuhrman
!!!YOR: Schumann Lieder - Max Friedlaender, ed.,
!!!YOR: New York: C. F. Peters, Vol. 2
!!!ODT: 1840/
!!NB: Vocal melody and text only encoded.
!!NB: First instance of melodic material only encoded.
**kern	**silbe
*clefG2	*
*k[b-e-]	*
*M6/8	*
!!created: 07/06/06 10:35
!!proofed and posted: 07/06/06 10:35
!!edit time: 60 minutes
=5	=5
{8f	{Als
8g	ich
8a	zu-
4b-	-erst
8r	.
=6	=6
8f	dich
8.g	hab'
16a	ge-
4b-}	-sehn,}
8r	.
=7	=7
{8b-	{wie
8a	du
8g	so
4f#	lieb-
8d	-lich
=8	=8
(8b-	warst,
8.a)	|
16g	so
4f#}	scho2n,}
8r	.
=9	=9
{8g	{da
8a	fiel's
8bn	mein
4cc	Leb-
8g	-tag
=10	=10
(8g	mir
8.a)	|
16bn	nicht
4cc}	ein,}
8r	.
=11	=11
{8g	{dass
8g	noch
8g	was
4ee-	Scho2n'
8dd	res
=12	=12
4cc	sol-
8b-	-te
4.a}	sein,}
=13	=13
{8f	{als
8g	in
8a	dein
4b-	lie-
8f	-bes
=14	=14
4cc	Au-
8f	-gen-
4.dd	-paar
=15	=15
8b-	hin-
8b-	-ein
8b-	zu
4ee-	schau-
8b-	-en
=16	=16
4dd	im-
8cc	-mer-
4b-}	-dar.}
8r	.
!! rest to measure 21
=21	=21
{8c	{Da
8d	hab'
8en	ich
4f	denn
8r	.
=22	=22
8c	so
8.d	lang'
16en	ge-
4f}	-schaut,}
8r	.
=23	=23
{8f	{bis
8en	du
8d	ge-
4c	-wor-
8A	-den
=24	=24
(8f	mei-
8.en)	|
16d	-ne
4c#}	Braut,}
8r	.
=25	=25
{8d	{und
8en	wie-
8f#	-der
4g	fiel
8d	es
=26	=26
(8d	mir
8.en)	|
16f#	nicht
4.g	ein,
=27	=27
8d	dass
8d	noch
8d	was
4b-	Scho2n'
8a	res
=28	=28
4g	ko2nn-
8f	-te
4.en}	sein,}
=29	=29
{8f	{als
8g	so
8a	an
4b-	dei-
8f	-nem
=30	=30
4cc	ro-
8f	-ten
4dd	Mund
8b-	sich
=31	=31
4b-	satt
8b-	zu
(8ee-	ku2s-
8b-)	|
8b-	-sen
=32	=32
4dd	al-
8cc	-le
4b-}	Stund!}
8r	.
!! rest to measure 37
=37	=37
{8f	{Da
8g	hab'
8a	ich
4b-	denn
8r	.
=38	=38
8f	so
8.g	lang'
16a	ge-
4b-}	-ku2sst,}
8r	.
=39	=39
{8b-	{bis
8a	du
8g	mein
4f#	Weib-
8d	-chen
=40	=40
(8b-	wor-
8.a)	|
16g	-den
4.f#}	bist,}
=41	=41
{8g	{und
8a	kann
8bn	nun
4cc	wohl
8g	ver-
=42	=42
(8g	-si-
8.a)	|
16bn	-chert
4.cc	sein,
=43	=43
8g	dass
8g	noch
8g	was
4ee-	Scho2n'
8dd	res
=44	=44
4cc	nicht
8b-	kann
(4.a	sein,
qg)}	|}
=45	=45
{8f	{als
8g	wie
8a	mit
4b-	sei-
8f	-nem
=46	=46
4cc	lie-
8f	-ben
4dd	Weib
8b-	zu
=47	=47
4b-	sein
8b-	so
4e-	ganz
8b-	ein'
=48	=48
4dd	Seel'
8cc	und
4.b-}	Leib,}
=49	=49
4r	.
8r	.
4r	.
{8g	{ein'
=50	=50
4b-	Seel'
8a	und
4dd	Lieb,
8bn	zu
=51	=51
(8bn	sein
8cc)	|
8dd	so
(8ff	ganz
8ee-)	|
8g	ein'
=52	=52
4b-	Seel'
8a	und
4.b-}	Leib.}
==	==
*-	*-
